X:1
T:Song Tune
T:Henry Purcell (1659-1695)
T:Score
T:Song Tune
T:Lied
T:©
C:Henry Purcell (1659-1695)
Z:©
%%score 1 { 2 | ( 3 4 ) }
L:1/8
Q:1/4=120
M:3/4
K:F
V:1 treble nm="Oboe" snm="Ob."
V:2 treble nm="Piano" snm="Pno."
V:3 bass 
V:4 bass 
V:1
!p! F4 A2 | (c2 A4) | (G4 A2 | B6) |"^5"!<(! (A3 B A2) | D2 E2!<)! F2 | (G3 A GF | E6) | z6 | %9
"^10" z2 z2!mp! F2 | (F4 E2 | F4) z2 |!mf! (B2 G2) E2 | c4 (BA) |"^15" A4 (GF) | F6 |] %16
V:2
!p! z2 z2 (F2 | E2 F4- | F2 E4) | z2 (D2 G2- |!<(! G2 F4- | F2!<)! G2) z2 | z2!>(! (D4!>)! | %7
!>(! C6)!>)! |!mf! (c4 e2 | g2 e2) dc | f4 g2 | a6 |!mf! z2 (D2 G2- | G2 F4) |!>(!!>(! (C4 B,2 | %15
 A,6)!>)!!>)! |] %16
V:3
 F,6 | z2 z2 (F,2 | C4) (C2 | G,6) | (D4 C2 | B,4 A,2 | =B,4 G,2) | z2 C,4 | z2[K:treble] (G3 F | %9
 ED C2 B,2) | z2 A,2 G,2 | z2 (C2 F2) | (G,6 | A,4 B,2) | z2 C,4 | z2 F,,4 |] %16
V:4
 x6 | x6 | x6 | x6 | x6 | x6 | x6 | x6 | x2[K:treble] x4 | x6 | x6 | F,6 | x6 | x6 | x6 | x6 |] %16

